X: 826
P: Longways for &c.
M: 6/4
L: 1/4
K: G
V: 1
|:\
|:\
g>fg def | g>fg d>cB | g>fg def | AFA c2A |\
g>fg def | g>fg d>cB | (c/d/)ec (d/e/)fd | AFAc2A :|
|:\
V: 2 clef=bass middle=d
|:\
g3 B2G | g3 c2d | g3 B2G | d3 e2f |\
g3 B2G | g3 B2G | c2A B2G | d2d e2f :|\
|:\
g3 B2d | e3 f2f | e3 B3 | zzd e2f |\
g3
|:\
g3 B2G | g3 c2d | g3 B3 | zzd e2f |\
g3 B2d | e3 f2f | e3 B3 | zzd A2d :|

